X:1
T:Title
%%score ( 1 2 ) ( 3 4 ) ( 5 6 )
L:1/8
Q:1/4=120
M:4/4
K:G
V:1 treble nm="Picked Bass, Treble Voice"
V:2 treble 
V:3 bass nm="Picked Bass, Tenor Voice"
V:4 bass 
V:5 bass nm="Picked Bass, Bass Voice"
V:6 bass 
V:1
 .d2 z z/ z/4 e/4 e2 .e2 | d2 A2 .B2 B2 | A4 B4 | d.BBd d4 | d2 z2 d4 | e2 e2 d2 A2 | B2 B2 A4 | %7
 B4 (3:2:2d2 .B B.d | d4 d4 | g3 e (5:4:6d z/ d/ z e.d | dB.d.d e4 | d4 g3 e | .dde.d d.BB.d | %13
 d4 d2 z2 |] %14
V:2
 z2 d4 z2 | x8 | x8 | x8 | x8 | x8 | x8 | x8 | x8 | x8 | x8 | x8 | x8 | x8 |] %14
V:3
 G,4 (5:4:4G,2 A,B,C | D2 z2 .E2 GE | D4[K:bass] B,4 | A,G,B,A, G,4 | G,2 z2 G,4 | %5
 G,A,B,C[K:treble] .D2 D2 | EFGE D4 | z4 A,2 B,A, | G,2 B,2[K:treble] D4 | D3 E .B,.B,[K:bass]B,D | %10
 A,.G,.G,G, A,2 B,2 | D4 D3 E | B,.B,[K:bass]B,D A,G,B,A, | G,4 G,2 z2 |] %14
V:4
 x8 | z2 D2- D .F3 | x4[K:bass] x4 | x8 | x8 | x4[K:treble] x4 | x8 | B,4- B, .G,3 | %8
 x4[K:treble] x4 | x6[K:bass] x2 | x8 | x8 | x2[K:bass] x6 | x8 |] %14
V:5
 G,4 .E,2 E,2 | D,2 D,2 G,2 G,2 | D,4 E,4 | D,E,.D,D, G,4 | G,2 z2 G,4 | .E,2 E,2 .D,2 D,2 | %6
 G,2 G,2 D,4 | E,4 z4 | G,2 E,2 D,4 | G,3 E, .G,G,E,.D, | z4 z2 G,2- | G,2 z2 G,4 | %12
 B,B,E,.D, D,E,.D,D, | G,4 G,2 z2 |] %14
V:6
 x8 | x8 | x8 | x8 | x8 | x8 | x8 | z/ z/4 z/16 .D,3/16 z z2 D,E,.D,D, | x8 | x8 | %10
 D,E,.G,.G, A,2 z2 | D,4 z2 z A, | x8 | x8 |] %14

